svg/u1f335.svg

<svg viewBox="0 0 128 128" xmlns="http://www.w3.org/2000/svg">
  <path d="M75.58,64.51c0,0,7.51,2.63,8.63-1.31c1.13-3.94-0.56-16.52-0.19-20.84s0.38-11.83,9.95-11.83 s10.7,7.7,10.89,14.08c0.19,6.38,1.65,20.87-5.93,30.29c-4.34,5.4-12.46,8.37-18.85,9.13c-6.38,0.75-12.95,9.73-12.95,9.73 l-15.21,6.23c0,0-10.6-0.15-19.71-7.88c-9.81-8.32-8.88-23.71-9.81-32.91s-3.89-22.28,10.38-23.4C47.05,34.66,44.05,55.31,43.3,60 c-0.75,4.69-1.13,17.64,3.38,19.71c4.5,2.06,14.83-2.44,14.83-2.44L75.58,64.51z" fill="#8BC029"/>
  <path d="M92.01,35.51c-1-1-2.35,3.75-2.25,6.66c0.09,2.91,1.31,20.84-1.88,23.74 c-3.19,2.91-5.16,3.28-10.32,3.28S54.19,87.03,52.12,87.03s-6.48-0.09-9.29-3c-2.82-2.91-4.41-7.32-4.5-14.73 s-0.38-19.05-0.47-20.93c-0.09-1.88-0.56-6.38-2.16-6.66s-0.38,3.19-0.38,5.16c0,1.97,0.24,21.48,0.28,23.74 c0.09,4.6,1.97,12.58,5.26,15.11c3.28,2.53,7.23,3.85,10.79,3.57c3.57-0.28,23.46-17.64,25.81-17.74c2.35-0.09,8.74,0.52,12.48-4.22 c3.85-4.88,2.63-18.02,2.53-21.68C92.38,41.98,92.38,35.88,92.01,35.51z" fill="#59951B"/>
  <path d="M31.38,42.55c0.07-1.6-3,2.06-3.1,7.6c-0.08,4.51,0.75,21.57,1.5,25.81 c0.84,4.79,3.21,10.86,7.98,15.02c3.66,3.19,8.92,4.22,13.14,4.22s12.01-2.63,16.52-6.85s7.7-9.67,10.42-9.57 c2.72,0.09,11.36-0.19,15.96-5.63s6.57-16.05,6.19-24.87c-0.35-8.18-0.67-13.07-2.35-12.76c-1.03,0.19-0.19,5.63,0,9.95 s0,13.89-1.69,18.86c-1.69,4.97-5.26,10.7-12.39,11.83c-7.13,1.13-8.63,0.09-8.63,0.09S69.11,84.5,64.6,87.69s-11.64,4.97-13.7,5.07 c-2.06,0.09-8.26-1.31-11.26-3.75c-3.09-2.51-6.58-6.94-7.41-12.48c-0.77-5.12-1.5-19.19-1.69-24.59 C30.4,48.09,31.29,44.61,31.38,42.55z" fill="#59951B"/>
  <path d="M64.6,7.73c-8.9-0.54-17.46,8.26-16.89,22.34s1.88,15.67,1.97,30.78s1.22,35.19,1.41,41.39 s-0.09,15.49,5.91,19.24c6.01,3.75,15.2,1.88,18.21-2.06c3-3.94,2.72-10.51,2.63-18.58c-0.09-8.07-0.19-21.87-0.47-26.65 s2.25-39.79,2.44-44.67C79.99,24.89,80.18,8.67,64.6,7.73z" fill="#8BC029"/>
  <path d="M59.91,11.86c-1.46,0-5.73,6.01-6.01,12.11s-0.56,19.71-0.19,27.5s1.24,29.55,1.5,36.6 c0.28,7.6,0.75,20.37,0.84,22.81c0.09,2.44,1.07,10.18,3.19,9.39c0.75-0.28-0.19-11.73-0.66-22.71c-0.45-10.5-1.5-35.57-1.69-44.3 s-0.84-23.65-0.09-28.53c0.75-4.88,1.6-7.7,2.35-9.2C59.91,14.02,61.32,11.86,59.91,11.86z" fill="#59951B"/>
  <path d="M71.74,119.88c1.68-0.61,2.63-3.66,2.63-8.63c0-4.97-0.19-24.5-0.19-33.79s0.84-28.25,0.84-35.66 s0-17.83-0.84-21.77c-0.75-3.48-3-7.7-4.79-7.79c-1.78-0.09,1.97,4.41,2.25,9.85c0.43,8.29,0.28,19.24,0.09,36.32 s0.38,30.5,0.28,38.86c-0.09,8.35,0.15,12.2,0,17.46C71.92,118.01,70.7,120.26,71.74,119.88z" fill="#59951B"/>
  <path d="M64.51,12.33c-1.41-0.07-2.35,8.73-2.16,13.98c0.19,5.26,0.75,29.56,0.94,33.88 s0.66,35.66,0.66,42.52c0,6.85,0.28,13.14,0.38,15.11c0.09,1.97-0.09,3.28,1.41,3.38c1.5,0.09,1.22-1.97,1.22-3.57 s-0.09-9.67-0.09-15.02c0-5.35-0.47-34.35-0.56-42.89c-0.09-8.54-0.09-26.47-0.09-33.69S66.29,12.42,64.51,12.33z" fill="#59951B"/>
  <path d="M64.51,5.66c0,0,2.06-2.25,2.72-1.88s-1.22,4.88-2.35,5.16c-1.13,0.28-3.57-3.85-2.91-4.22 C62.63,4.35,64.51,5.66,64.51,5.66z" fill="#FFBF1B"/>
  <path d="M74.65,13.64c0.81,1.22,5.44-0.09,5.07-1.03c-0.52-1.31-2.72-0.84-2.72-0.84s0.28-3-1.03-3 C75.02,8.76,74.08,12.8,74.65,13.64z" fill="#FFBF1B"/>
  <path d="M52.59,7.82c-0.8,0.23-0.19,2.63-0.19,2.63s-2.44-0.47-2.53,0.47c-0.09,0.94,3.57,3,4.69,1.78 C55.69,11.48,53.74,7.48,52.59,7.82z" fill="#FFBF1B"/>
  <path d="M45.74,23.45c-0.56,0.99,1.69,2.86,1.69,2.86s-2.72,1.88-2.16,2.63c0.56,0.75,5.35-0.84,5.4-2.39 C50.71,25,46.26,22.54,45.74,23.45z" fill="#FFE068"/>
  <path d="M69.95,23.36c-0.52-0.17-3.66,4.08-2.58,5.3c1.08,1.22,5.68-0.94,5.63-1.6s-2.82-0.84-2.82-0.84 S70.38,23.5,69.95,23.36z" fill="#FFE068"/>
  <path d="M52.08,45.84c0.16,1.35-4.79,3.94-5.4,2.96s1.97-3.1,1.97-3.1s-1.86-2.45-1.5-3.1 C47.63,41.76,51.9,44.29,52.08,45.84z" fill="#FFE068"/>
  <path d="M78.02,42.41c-0.67-0.31-4.32,2.58-3.99,4.5c0.33,1.92,5.63,0.89,5.63,0.28s-2.67-1.69-2.67-1.69 S78.63,42.69,78.02,42.41z" fill="#FFE068"/>
  <path d="M56.25,56.77c-0.33,0.29,1.74,2.91,1.74,2.91s-2.53,2.02-2.25,2.72c0.28,0.7,5.44,0,5.54-2.35 C61.36,57.88,57,56.11,56.25,56.77z" fill="#FFE068"/>
  <path d="M47.56,68.94c-0.19,0.45,1.97,2.82,1.97,2.82s-2.49,2.86-1.92,3.47c0.56,0.61,5.3-1.22,5.49-3.1 S47.98,67.91,47.56,68.94z" fill="#FFE068"/>
  <path d="M73.05,68.12c0.23,2.49,4.88,2.82,5.26,2.02c0.29-0.61-2.25-2.25-2.25-2.25s1.95-2.6,1.6-3 C77.04,64.18,72.88,66.3,73.05,68.12z" fill="#FFE068"/>
  <path d="M51.08,84.43c-0.44,0.56,1.83,2.86,1.83,2.86s-3.23,1.56-2.91,2.44c0.23,0.66,5.47,0.49,5.96-1.55 C56.71,85.04,51.41,84.01,51.08,84.43z" fill="#FFE068"/>
  <path d="M65.85,99.64c0.03,1.84,5.3,2.86,5.68,2.21c0.38-0.66-2.72-2.91-2.72-2.91s2.16-2.77,1.83-3.38 C70.31,94.95,65.8,97.11,65.85,99.64z" fill="#FFE068"/>
  <path d="M75.68,89.48c0.19,2.11,5.65,3,5.77,2.02c0.09-0.75-2.58-2.39-2.58-2.39s1.83-1.92,1.41-2.63 C79.86,85.78,75.55,87.98,75.68,89.48z" fill="#FFE068"/>
  <path d="M55.88,108.86c0.19,2.02-3.8,4.04-4.13,3.52c-0.45-0.7,1.55-3.61,1.55-3.61s-2.16-2.77-1.88-3.24 C51.86,104.78,55.69,106.84,55.88,108.86z" fill="#FFE068"/>
  <path d="M79.97,103.32c0.23,0.72-1.55,3.19-1.55,3.19s3.05,2.21,2.58,2.91c-0.47,0.7-4.88,0.05-5.35-2.21 C75.18,104.97,79.68,102.43,79.97,103.32z" fill="#FFBF1B"/>
  <path d="M95.35,30c0,0-1.84-2.3-2.67-1.77c-0.48,0.31,0.72,4.26,2.75,4.3c2.03,0.04,3.22-4.38,2.39-4.57 C97.15,27.81,95.35,30,95.35,30z" fill="#FFBF1B"/>
  <path d="M105.37,35.36c0,0,0.32-2.36-0.04-2.76c-0.36-0.4-3.23,3.24-2.28,4.87c0.96,1.64,5.43-0.92,5.11-1.44 C107.84,35.52,105.37,35.36,105.37,35.36z" fill="#FFBF1B"/>
  <path d="M84.3,35.2c0,0-2.74,0.85-2.74,1.58c0,0.72,4.31,1.66,5.4-0.17c1.09-1.83-2.7-4.56-3.13-4.17 C83.39,32.81,84.3,35.2,84.3,35.2z" fill="#FFBF1B"/>
  <path d="M101.96,67.47c-0.38,1.61,3.05,4.88,3.8,4.36c0.41-0.28-1.08-3.66-1.08-3.66s2.72-1.08,2.67-1.55 S102.38,65.68,101.96,67.47z" fill="#FFBF1B"/>
  <path d="M104.21,53.67c-0.03,1.4,5.16,2.25,5.44,1.69c0.28-0.56-2.16-2.63-2.16-2.63s1.88-2.39,1.31-2.82 S104.26,51.51,104.21,53.67z" fill="#FFE068"/>
  <path d="M24.14,55.2c0.1,1.31-3.75,3.43-4.22,2.82s1.31-2.77,1.31-2.77s-2.3-1.5-1.74-2.25 C20.05,52.24,23.99,53.42,24.14,55.2z" fill="#FFE068"/>
  <path d="M25.28,62.07c-0.29,0.45,1.64,2.44,1.64,2.44s-1.88,2.53-1.36,3.05c0.52,0.52,3.9-1,3.8-3.28 C29.27,62.12,25.7,61.41,25.28,62.07z" fill="#FFE068"/>
  <path d="M33.44,34.14c0,0-1.88-2.18-2.44-2.1c-0.8,0.12-0.09,4.55,2.25,4.55c2.35,0,3.19-4.32,2.67-4.55 C35.42,31.81,33.44,34.14,33.44,34.14z" fill="#FFBF1B"/>
  <path d="M40.81,40.39c1.27,1.55,5.44-1.13,5.26-1.64c-0.19-0.52-3-0.42-3-0.42s0.38-2.49-0.47-2.77 C41.75,35.27,39.75,39.09,40.81,40.39z" fill="#FFBF1B"/>
  <path d="M25,41c-0.75,1.5-4.55,0.7-4.74-0.05c-0.19-0.75,2.3-1.41,2.3-1.41s-0.75-2.35-0.33-2.63 C22.65,36.64,26.15,38.69,25,41z" fill="#FFBF1B"/>
  <path d="M26.65,76.97c0.64,1.55-2.35,4.55-2.91,3.99c-0.33-0.33,0.33-3.1,0.33-3.1s-2.52-1.03-2.39-1.45 C21.82,75.94,25.9,75.14,26.65,76.97z" fill="#FFBF1B"/>
</svg>

<svg viewBox="0 0 128 128" xmlns="http://www.w3.org/2000/svg">
  <defs/>
  <path d="M75.58,64.51 C75.58,64.51 83.09,67.14 84.21,63.2 C85.34,59.26 83.65,46.68 84.02,42.36 C84.39,38.04 84.4,30.53 93.97,30.53 C103.54,30.53 104.67,38.23 104.86,44.61 C105.05,50.99 106.51,65.48 98.93,74.9 C94.59,80.3 86.47,83.27 80.08,84.03 C73.7,84.78 67.13,93.76 67.13,93.76 L51.92,99.99 C51.92,99.99 41.32,99.84 32.21,92.11 C22.4,83.79 23.33,68.4 22.4,59.2 C21.47,50 18.51,36.92 32.78,35.8 C47.05,34.66 44.05,55.31 43.3,60 C42.55,64.69 42.17,77.64 46.68,79.71 C51.18,81.77 61.51,77.27 61.51,77.27 L75.58,64.51 Z" fill="#8BC029"/>
  <path d="M92.01,35.51 C91.01,34.51 89.66,39.26 89.76,42.17 C89.85,45.08 91.07,63.01 87.88,65.91 C84.69,68.82 82.72,69.19 77.56,69.19 C72.4,69.19 54.19,87.03 52.12,87.03 C50.05,87.03 45.64,86.94 42.83,84.03 C40.01,81.12 38.42,76.71 38.33,69.3 C38.24,61.89 37.95,50.25 37.86,48.37 C37.77,46.49 37.3,41.99 35.7,41.71 C34.1,41.43 35.32,44.9 35.32,46.87 C35.32,48.84 35.56,68.35 35.6,70.61 C35.69,75.21 37.57,83.19 40.86,85.72 C44.14,88.25 48.09,89.57 51.65,89.29 C55.22,89.01 75.11,71.65 77.46,71.55 C79.81,71.46 86.2,72.07 89.94,67.33 C93.79,62.45 92.57,49.31 92.47,45.65 C92.38,41.98 92.38,35.88 92.01,35.51 Z" fill="#59951B"/>
  <path d="M31.38,42.55 C31.45,40.95 28.38,44.61 28.28,50.15 C28.2,54.66 29.03,71.72 29.78,75.96 C30.62,80.75 32.99,86.82 37.76,90.98 C41.42,94.17 46.68,95.2 50.9,95.2 C55.12,95.2 62.91,92.57 67.42,88.35 C71.93,84.13 75.12,78.68 77.84,78.78 C80.56,78.87 89.2,78.59 93.8,73.15 C98.4,67.71 100.37,57.1 99.99,48.28 C99.64,40.1 99.32,35.21 97.64,35.52 C96.61,35.71 97.45,41.15 97.64,45.47 C97.83,49.79 97.64,59.36 95.95,64.33 C94.26,69.3 90.69,75.03 83.56,76.16 C76.43,77.29 74.93,76.25 74.93,76.25 C74.93,76.25 69.11,84.5 64.6,87.69 C60.09,90.88 52.96,92.66 50.9,92.76 C48.84,92.85 42.64,91.45 39.64,89.01 C36.55,86.5 33.06,82.07 32.23,76.53 C31.46,71.41 30.73,57.34 30.54,51.94 C30.4,48.09 31.29,44.61 31.38,42.55 Z" fill="#59951B"/>
  <path d="M64.6,7.73 C55.7,7.19 47.14,15.99 47.71,30.07 C48.28,44.15 49.59,45.74 49.68,60.85 C49.77,75.96 50.9,96.04 51.09,102.24 C51.28,108.44 51,117.73 57,121.48 C63.01,125.23 72.2,123.36 75.21,119.42 C78.21,115.48 77.93,108.91 77.84,100.84 C77.75,92.77 77.65,78.97 77.37,74.19 C77.09,69.41 79.62,34.4 79.81,29.52 C79.99,24.89 80.18,8.67 64.6,7.73 Z" fill="#8BC029"/>
  <path d="M59.91,11.86 C58.45,11.86 54.18,17.87 53.9,23.97 C53.62,30.07 53.34,43.68 53.71,51.47 C54.08,59.26 54.95,81.02 55.21,88.07 C55.49,95.67 55.96,108.44 56.05,110.88 C56.14,113.32 57.12,121.06 59.24,120.27 C59.99,119.99 59.05,108.54 58.58,97.56 C58.13,87.06 57.08,61.99 56.89,53.26 C56.7,44.53 56.05,29.61 56.8,24.73 C57.55,19.85 58.4,17.03 59.15,15.53 C59.91,14.02 61.32,11.86 59.91,11.86 Z" fill="#59951B"/>
  <path d="M71.74,119.88 C73.42,119.27 74.37,116.22 74.37,111.25 C74.37,106.28 74.18,86.75 74.18,77.46 C74.18,68.17 75.02,49.21 75.02,41.8 C75.02,34.39 75.02,23.97 74.18,20.03 C73.43,16.55 71.18,12.33 69.39,12.24 C67.61,12.15 71.36,16.65 71.64,22.09 C72.07,30.38 71.92,41.33 71.73,58.41 C71.54,75.49 72.11,88.91 72.01,97.27 C71.92,105.62 72.16,109.47 72.01,114.73 C71.92,118.01 70.7,120.26 71.74,119.88 Z" fill="#59951B"/>
  <path d="M64.51,12.33 C63.1,12.26 62.16,21.06 62.35,26.31 C62.54,31.57 63.1,55.87 63.29,60.19 C63.48,64.51 63.95,95.85 63.95,102.71 C63.95,109.56 64.23,115.85 64.33,117.82 C64.42,119.79 64.24,121.1 65.74,121.2 C67.24,121.29 66.96,119.23 66.96,117.63 C66.96,116.03 66.87,107.96 66.87,102.61 C66.87,97.26 66.4,68.26 66.31,59.72 C66.22,51.18 66.22,33.25 66.22,26.03 C66.22,18.81 66.29,12.42 64.51,12.33 Z" fill="#59951B"/>
  <path d="M64.51,5.66 C64.51,5.66 66.57,3.41 67.23,3.78 C67.89,4.15 66.01,8.66 64.88,8.94 C63.75,9.22 61.31,5.09 61.97,4.72 C62.63,4.35 64.51,5.66 64.51,5.66 Z" fill="#FFBF1B"/>
  <path d="M74.65,13.64 C75.46,14.86 80.09,13.55 79.72,12.61 C79.2,11.3 77,11.77 77,11.77 C77,11.77 77.28,8.77 75.97,8.77 C75.02,8.76 74.08,12.8 74.65,13.64 Z" fill="#FFBF1B"/>
  <path d="M52.59,7.82 C51.79,8.05 52.4,10.45 52.4,10.45 C52.4,10.45 49.96,9.98 49.87,10.92 C49.78,11.86 53.44,13.92 54.56,12.7 C55.69,11.48 53.74,7.48 52.59,7.82 Z" fill="#FFBF1B"/>
  <path d="M45.74,23.45 C45.18,24.44 47.43,26.31 47.43,26.31 C47.43,26.31 44.71,28.19 45.27,28.94 C45.83,29.69 50.62,28.1 50.67,26.55 C50.71,25 46.26,22.54 45.74,23.45 Z" fill="#FFE068"/>
  <path d="M69.95,23.36 C69.43,23.19 66.29,27.44 67.37,28.66 C68.45,29.88 73.05,27.72 73,27.06 C72.95,26.4 70.18,26.22 70.18,26.22 C70.18,26.22 70.38,23.5 69.95,23.36 Z" fill="#FFE068"/>
  <path d="M52.08,45.84 C52.24,47.19 47.29,49.78 46.68,48.8 C46.07,47.82 48.65,45.7 48.65,45.7 C48.65,45.7 46.79,43.25 47.15,42.6 C47.63,41.76 51.9,44.29 52.08,45.84 Z" fill="#FFE068"/>
  <path d="M78.02,42.41 C77.35,42.1 73.7,44.99 74.03,46.91 C74.36,48.83 79.66,47.8 79.66,47.19 C79.66,46.58 76.99,45.5 76.99,45.5 C76.99,45.5 78.63,42.69 78.02,42.41 Z" fill="#FFE068"/>
  <path d="M56.25,56.77 C55.92,57.06 57.99,59.68 57.99,59.68 C57.99,59.68 55.46,61.7 55.74,62.4 C56.02,63.1 61.18,62.4 61.28,60.05 C61.36,57.88 57,56.11 56.25,56.77 Z" fill="#FFE068"/>
  <path d="M47.56,68.94 C47.37,69.39 49.53,71.76 49.53,71.76 C49.53,71.76 47.04,74.62 47.61,75.23 C48.17,75.84 52.91,74.01 53.1,72.13 C53.29,70.25 47.98,67.91 47.56,68.94 Z" fill="#FFE068"/>
  <path d="M73.05,68.12 C73.28,70.61 77.93,70.94 78.31,70.14 C78.6,69.53 76.06,67.89 76.06,67.89 C76.06,67.89 78.01,65.29 77.66,64.89 C77.04,64.18 72.88,66.3 73.05,68.12 Z" fill="#FFE068"/>
  <path d="M51.08,84.43 C50.64,84.99 52.91,87.29 52.91,87.29 C52.91,87.29 49.68,88.85 50,89.73 C50.23,90.39 55.47,90.22 55.96,88.18 C56.71,85.04 51.41,84.01 51.08,84.43 Z" fill="#FFE068"/>
  <path d="M65.85,99.64 C65.88,101.48 71.15,102.5 71.53,101.85 C71.91,101.19 68.81,98.94 68.81,98.94 C68.81,98.94 70.97,96.17 70.64,95.56 C70.31,94.95 65.8,97.11 65.85,99.64 Z" fill="#FFE068"/>
  <path d="M75.68,89.48 C75.87,91.59 81.33,92.48 81.45,91.5 C81.54,90.75 78.87,89.11 78.87,89.11 C78.87,89.11 80.7,87.19 80.28,86.48 C79.86,85.78 75.55,87.98 75.68,89.48 Z" fill="#FFE068"/>
  <path d="M55.88,108.86 C56.07,110.88 52.08,112.9 51.75,112.38 C51.3,111.68 53.3,108.77 53.3,108.77 C53.3,108.77 51.14,106 51.42,105.53 C51.86,104.78 55.69,106.84 55.88,108.86 Z" fill="#FFE068"/>
  <path d="M79.97,103.32 C80.2,104.04 78.42,106.51 78.42,106.51 C78.42,106.51 81.47,108.72 81,109.42 C80.53,110.12 76.12,109.47 75.65,107.21 C75.18,104.97 79.68,102.43 79.97,103.32 Z" fill="#FFBF1B"/>
  <path d="M95.35,30 C95.35,30 93.51,27.7 92.68,28.23 C92.2,28.54 93.4,32.49 95.43,32.53 C97.46,32.57 98.65,28.15 97.82,27.96 C97.15,27.81 95.35,30 95.35,30 Z" fill="#FFBF1B"/>
  <path d="M105.37,35.36 C105.37,35.36 105.69,33 105.33,32.6 C104.97,32.2 102.1,35.84 103.05,37.47 C104.01,39.11 108.48,36.55 108.16,36.03 C107.84,35.52 105.37,35.36 105.37,35.36 Z" fill="#FFBF1B"/>
  <path d="M84.3,35.2 C84.3,35.2 81.56,36.05 81.56,36.78 C81.56,37.5 85.87,38.44 86.96,36.61 C88.05,34.78 84.26,32.05 83.83,32.44 C83.39,32.81 84.3,35.2 84.3,35.2 Z" fill="#FFBF1B"/>
  <path d="M101.96,67.47 C101.58,69.08 105.01,72.35 105.76,71.83 C106.17,71.55 104.68,68.17 104.68,68.17 C104.68,68.17 107.4,67.09 107.35,66.62 C107.3,66.15 102.38,65.68 101.96,67.47 Z" fill="#FFBF1B"/>
  <path d="M104.21,53.67 C104.18,55.07 109.37,55.92 109.65,55.36 C109.93,54.8 107.49,52.73 107.49,52.73 C107.49,52.73 109.37,50.34 108.8,49.91 C108.23,49.48 104.26,51.51 104.21,53.67 Z" fill="#FFE068"/>
  <path d="M24.14,55.2 C24.24,56.51 20.39,58.63 19.92,58.02 C19.45,57.41 21.23,55.25 21.23,55.25 C21.23,55.25 18.93,53.75 19.49,53 C20.05,52.24 23.99,53.42 24.14,55.2 Z" fill="#FFE068"/>
  <path d="M25.28,62.07 C24.99,62.52 26.92,64.51 26.92,64.51 C26.92,64.51 25.04,67.04 25.56,67.56 C26.08,68.08 29.46,66.56 29.36,64.28 C29.27,62.12 25.7,61.41 25.28,62.07 Z" fill="#FFE068"/>
  <path d="M33.44,34.14 C33.44,34.14 31.56,31.96 31,32.04 C30.2,32.16 30.91,36.59 33.25,36.59 C35.6,36.59 36.44,32.27 35.92,32.04 C35.42,31.81 33.44,34.14 33.44,34.14 Z" fill="#FFBF1B"/>
  <path d="M40.81,40.39 C42.08,41.94 46.25,39.26 46.07,38.75 C45.88,38.23 43.07,38.33 43.07,38.33 C43.07,38.33 43.45,35.84 42.6,35.56 C41.75,35.27 39.75,39.09 40.81,40.39 Z" fill="#FFBF1B"/>
  <path d="M25,41 C24.25,42.5 20.45,41.7 20.26,40.95 C20.07,40.2 22.56,39.54 22.56,39.54 C22.56,39.54 21.81,37.19 22.23,36.91 C22.65,36.64 26.15,38.69 25,41 Z" fill="#FFBF1B"/>
  <path d="M26.65,76.97 C27.29,78.52 24.3,81.52 23.74,80.96 C23.41,80.63 24.07,77.86 24.07,77.86 C24.07,77.86 21.55,76.83 21.68,76.41 C21.82,75.94 25.9,75.14 26.65,76.97 Z" fill="#FFBF1B"/>
</svg>
